X:1
T:Oxford (Stainer), 87.87
T:Oxford (Stainer), 87.87
T:John Stainer, 1887
T:Public Domain Courtesy of the Cyber Hymnal™
C:John Stainer, 1887
Z:Public Domain
Z:Courtesy of the Cyber Hymnal™
%%score ( 1 2 ) ( 3 4 )
L:1/8
Q:1/4=110
M:4/4
K:D
V:1 treble 
V:2 treble 
V:3 bass 
V:4 bass 
V:1
 F2 [EA]2 [Dd]2 [Dc]2 | [DB]2 [DA]2 [DA]2 [CG]2 | F2 [EA]2 D2 [CF]2 | [B,E]2 D2 [CE]4 | %4
 [CE]2 [^DF]2 [EG]2 [EB]2 | [Ge]2 [Gd]2 [Gd]2 [Gc]2 | [Fd]2 [DA]2 [DA]2 [EG]2 | [DF]2 [CE]2 D4 |] %8
V:2
 F2 x6 | x8 | F2 D2 x4 | x2 D2 x4 | x8 | x8 | x8 | x4 D4 |] %8
V:3
 [D,D]2 [D,C]2 [D,B,]2 [D,A,]2 | G,2 [F,A,]2 [E,B,]2 [A,,A,]2 | [D,A,]2 [C,A,]2 [B,,F,]2 [A,,A,]2 | %3
 [G,,B,]2 [B,,F,]2 [A,,A,]4 | [G,A,]2 [F,A,]2 [E,G,]2 [D,G,]2 | [C,A,]2 [B,,B,]2 [A,,E]2 [^A,,C]2 | %6
 [B,,B,]2 [=C,F,]2 (G,A,) [G,,B,]2 | [A,,A,]2 (A,G,) [D,F,]4 |] %8
V:4
 x8 | G,2 x6 | x8 | x8 | x8 | x8 | x4 B,,2 x2 | x2 A,,2 x4 |] %8

